X: 3792
T: Bittern, The
R: reel
M: 4/4
K: Edorian
[M:3/4] E2 BE Dd|[M:5/4] Ee BG AF BEDF|[M:3/4] DE BE Dd|Ee ge dB|1 [M:4/4] Aa c(e e3)E:|2 [M:4/4] Aa c(e e4)||
[M:4/4] dA A2 ecAG|Ff f2 agec|dA A2 ecAG|FdGd FAGE|
dA A2 ecAG|Ff f2 agec|dA A2 fage|dcAG AGED||

